icons/modern/megaphone.svg

<svg width="32" height="32" viewBox="0 0 32 32" fill="none" xmlns="http://www.w3.org/2000/svg">
<g filter="url(#filter0_ii_18_17893)">
<path fill-rule="evenodd" clip-rule="evenodd" d="M13.0493 21.6471L22.7342 17.7001L25.0748 23.4432C25.6688 24.9008 24.9688 26.564 23.5112 27.1581L19.1047 28.9539C17.6471 29.5479 15.9839 28.8478 15.3899 27.3902L13.0493 21.6471ZM15.5259 22.6895L17.1494 26.6732C17.3474 27.159 17.9018 27.3924 18.3877 27.1944L22.7941 25.3986C23.28 25.2006 23.5133 24.6462 23.3153 24.1603L21.6918 20.1766L15.5259 22.6895Z" fill="#FBBA59"/>
</g>
<g filter="url(#filter1_f_18_17893)">
<path d="M14.5757 21.9344L14.4818 21.7027L14.2492 21.797L14.3443 22.0292L14.5757 21.9344ZM22.5439 18.7045L22.7752 18.6097L22.6808 18.3792L22.45 18.4728L22.5439 18.7045ZM19.0584 27.8402L18.9644 27.6085L19.0584 27.8402ZM16.5684 26.7978L16.7998 26.703L16.5684 26.7978ZM24.5366 23.5679L24.3053 23.6626L24.5366 23.5679ZM23.4886 26.0444L23.5825 26.2761L23.4886 26.0444ZM14.6696 22.1661L22.6378 18.9362L22.45 18.4728L14.4818 21.7027L14.6696 22.1661ZM22.3125 18.7993L24.3053 23.6626L24.768 23.4731L22.7752 18.6097L22.3125 18.7993ZM23.3947 25.8127L18.9644 27.6085L19.1523 28.0719L23.5825 26.2761L23.3947 25.8127ZM16.7998 26.703L14.807 21.8396L14.3443 22.0292L16.3371 26.8926L16.7998 26.703ZM18.9644 27.6085C18.1142 27.9532 17.1454 27.5465 16.7998 26.703L16.3371 26.8926C16.7878 27.9926 18.0485 28.5193 19.1523 28.0719L18.9644 27.6085ZM24.3053 23.6626C24.6506 24.5054 24.2442 25.4684 23.3947 25.8127L23.5825 26.2761C24.6869 25.8284 25.219 24.5738 24.768 23.4731L24.3053 23.6626Z" fill="url(#paint0_linear_18_17893)"/>
<path d="M14.5757 21.9344L14.4818 21.7027L14.2492 21.797L14.3443 22.0292L14.5757 21.9344ZM22.5439 18.7045L22.7752 18.6097L22.6808 18.3792L22.45 18.4728L22.5439 18.7045ZM19.0584 27.8402L18.9644 27.6085L19.0584 27.8402ZM16.5684 26.7978L16.7998 26.703L16.5684 26.7978ZM24.5366 23.5679L24.3053 23.6626L24.5366 23.5679ZM23.4886 26.0444L23.5825 26.2761L23.4886 26.0444ZM14.6696 22.1661L22.6378 18.9362L22.45 18.4728L14.4818 21.7027L14.6696 22.1661ZM22.3125 18.7993L24.3053 23.6626L24.768 23.4731L22.7752 18.6097L22.3125 18.7993ZM23.3947 25.8127L18.9644 27.6085L19.1523 28.0719L23.5825 26.2761L23.3947 25.8127ZM16.7998 26.703L14.807 21.8396L14.3443 22.0292L16.3371 26.8926L16.7998 26.703ZM18.9644 27.6085C18.1142 27.9532 17.1454 27.5465 16.7998 26.703L16.3371 26.8926C16.7878 27.9926 18.0485 28.5193 19.1523 28.0719L18.9644 27.6085ZM24.3053 23.6626C24.6506 24.5054 24.2442 25.4684 23.3947 25.8127L23.5825 26.2761C24.6869 25.8284 25.219 24.5738 24.768 23.4731L24.3053 23.6626Z" fill="url(#paint1_radial_18_17893)"/>
</g>
<path d="M12.7498 3.74151C13.5425 1.93115 15.9106 1.48963 17.3025 2.89269L28.9909 14.6752C30.3771 16.0726 29.927 18.4263 28.123 19.2135L9.27685 27.4375L4.54248 22.4843L12.7498 3.74151Z" fill="url(#paint2_radial_18_17893)"/>
<path d="M12.7498 3.74151C13.5425 1.93115 15.9106 1.48963 17.3025 2.89269L28.9909 14.6752C30.3771 16.0726 29.927 18.4263 28.123 19.2135L9.27685 27.4375L4.54248 22.4843L12.7498 3.74151Z" fill="url(#paint3_linear_18_17893)"/>
<path d="M12.7498 3.74151C13.5425 1.93115 15.9106 1.48963 17.3025 2.89269L28.9909 14.6752C30.3771 16.0726 29.927 18.4263 28.123 19.2135L9.27685 27.4375L4.54248 22.4843L12.7498 3.74151Z" fill="url(#paint4_radial_18_17893)"/>
<path d="M12.7498 3.74151C13.5425 1.93115 15.9106 1.48963 17.3025 2.89269L28.9909 14.6752C30.3771 16.0726 29.927 18.4263 28.123 19.2135L9.27685 27.4375L4.54248 22.4843L12.7498 3.74151Z" fill="url(#paint5_radial_18_17893)"/>
<path d="M12.7498 3.74151C13.5425 1.93115 15.9106 1.48963 17.3025 2.89269L28.9909 14.6752C30.3771 16.0726 29.927 18.4263 28.123 19.2135L9.27685 27.4375L4.54248 22.4843L12.7498 3.74151Z" fill="url(#paint6_linear_18_17893)"/>
<rect x="3.69873" y="20.4844" width="10.927" height="3.31456" rx="1.65728" transform="rotate(45 3.69873 20.4844)" fill="#FAA72C"/>
<rect x="3.69873" y="20.4844" width="10.927" height="3.31456" rx="1.65728" transform="rotate(45 3.69873 20.4844)" fill="url(#paint7_radial_18_17893)"/>
<rect x="3.69873" y="20.4844" width="10.927" height="3.31456" rx="1.65728" transform="rotate(45 3.69873 20.4844)" fill="url(#paint8_linear_18_17893)"/>
<rect x="3.69873" y="20.4844" width="10.927" height="3.31456" rx="1.65728" transform="rotate(45 3.69873 20.4844)" fill="url(#paint9_radial_18_17893)"/>
<rect x="3.69873" y="20.4844" width="10.927" height="3.31456" rx="1.65728" transform="rotate(45 3.69873 20.4844)" fill="url(#paint10_radial_18_17893)"/>
<defs>
<filter id="filter0_ii_18_17893" x="13.0493" y="17.2001" width="12.7371" height="11.9653" filterUnits="userSpaceOnUse" color-interpolation-filters="sRGB">
<feFlood flood-opacity="0" result="BackgroundImageFix"/>
<feBlend mode="normal" in="SourceGraphic" in2="BackgroundImageFix" result="shape"/>
<feColorMatrix in="SourceAlpha" type="matrix" values="0 0 0 0 0 0 0 0 0 0 0 0 0 0 0 0 0 0 127 0" result="hardAlpha"/>
<feOffset dx="0.5" dy="-0.5"/>
<feGaussianBlur stdDeviation="0.375"/>
<feComposite in2="hardAlpha" operator="arithmetic" k2="-1" k3="1"/>
<feColorMatrix type="matrix" values="0 0 0 0 0.972549 0 0 0 0 0.6 0 0 0 0 0.231373 0 0 0 1 0"/>
<feBlend mode="normal" in2="shape" result="effect1_innerShadow_18_17893"/>
<feColorMatrix in="SourceAlpha" type="matrix" values="0 0 0 0 0 0 0 0 0 0 0 0 0 0 0 0 0 0 127 0" result="hardAlpha"/>
<feOffset dx="0.3"/>
<feGaussianBlur stdDeviation="0.25"/>
<feComposite in2="hardAlpha" operator="arithmetic" k2="-1" k3="1"/>
<feColorMatrix type="matrix" values="0 0 0 0 0.831373 0 0 0 0 0.54902 0 0 0 0 0.254902 0 0 0 1 0"/>
<feBlend mode="normal" in2="effect1_innerShadow_18_17893" result="effect2_innerShadow_18_17893"/>
</filter>
<filter id="filter1_f_18_17893" x="13.7493" y="17.8793" width="11.6792" height="10.8521" filterUnits="userSpaceOnUse" color-interpolation-filters="sRGB">
<feFlood flood-opacity="0" result="BackgroundImageFix"/>
<feBlend mode="normal" in="SourceGraphic" in2="BackgroundImageFix" result="shape"/>
<feGaussianBlur stdDeviation="0.25" result="effect1_foregroundBlur_18_17893"/>
</filter>
<linearGradient id="paint0_linear_18_17893" x1="25.3753" y1="23.6894" x2="21.5955" y2="25.7337" gradientUnits="userSpaceOnUse">
<stop stop-color="#FFEA7B"/>
<stop offset="1" stop-color="#FFEA7B" stop-opacity="0"/>
</linearGradient>
<radialGradient id="paint1_radial_18_17893" cx="0" cy="0" r="1" gradientUnits="userSpaceOnUse" gradientTransform="translate(16.8826 25.1449) rotate(153.004) scale(2.4048 2.82651)">
<stop stop-color="#FFEA7B"/>
<stop offset="1" stop-color="#FFEA7B" stop-opacity="0"/>
</radialGradient>
<radialGradient id="paint2_radial_18_17893" cx="0" cy="0" r="1" gradientUnits="userSpaceOnUse" gradientTransform="translate(10.1206 25.25) rotate(-32.1826) scale(17.1323 6.44479)">
<stop offset="0.0244878" stop-color="#FAB66E"/>
<stop offset="1" stop-color="#EC9547"/>
</radialGradient>
<linearGradient id="paint3_linear_18_17893" x1="5.74561" y1="14.25" x2="13.5581" y2="18.375" gradientUnits="userSpaceOnUse">
<stop offset="0.210788" stop-color="#A47F53"/>
<stop offset="1" stop-color="#C59635" stop-opacity="0"/>
</linearGradient>
<radialGradient id="paint4_radial_18_17893" cx="0" cy="0" r="1" gradientUnits="userSpaceOnUse" gradientTransform="translate(23.9956 11.375) rotate(138.24) scale(2.34604 9.52038)">
<stop stop-color="#FCC071"/>
<stop offset="1" stop-color="#F9A53E" stop-opacity="0"/>
</radialGradient>
<radialGradient id="paint5_radial_18_17893" cx="0" cy="0" r="1" gradientUnits="userSpaceOnUse" gradientTransform="translate(17.1731 3.59371) rotate(138.321) scale(1.78581 7.91711)">
<stop stop-color="#EBA659"/>
<stop offset="1" stop-color="#F29E36" stop-opacity="0"/>
</radialGradient>
<linearGradient id="paint6_linear_18_17893" x1="20.7456" y1="22.875" x2="19.8394" y2="20.9062" gradientUnits="userSpaceOnUse">
<stop offset="0.0935317" stop-color="#EC7E85"/>
<stop offset="1" stop-color="#F8A35F" stop-opacity="0"/>
</linearGradient>
<radialGradient id="paint7_radial_18_17893" cx="0" cy="0" r="1" gradientUnits="userSpaceOnUse" gradientTransform="translate(13.8855 23.578) rotate(-178.141) scale(7.49486 2.103)">
<stop stop-color="#F79F6D"/>
<stop offset="1" stop-color="#F79F6D" stop-opacity="0"/>
</radialGradient>
<linearGradient id="paint8_linear_18_17893" x1="6.15151" y1="24.1525" x2="9.2672" y2="20.4181" gradientUnits="userSpaceOnUse">
<stop stop-color="#A77850"/>
<stop offset="1" stop-color="#DB8E2F" stop-opacity="0"/>
</linearGradient>
<radialGradient id="paint9_radial_18_17893" cx="0" cy="0" r="1" gradientUnits="userSpaceOnUse" gradientTransform="translate(9.57656 21.3462) rotate(93.7586) scale(1.13768 3.75057)">
<stop stop-color="#FCCA73"/>
<stop offset="1" stop-color="#FBB950" stop-opacity="0"/>
</radialGradient>
<radialGradient id="paint10_radial_18_17893" cx="0" cy="0" r="1" gradientUnits="userSpaceOnUse" gradientTransform="translate(11.1675 19.8878) rotate(75.2284) scale(4.59332 16.1018)">
<stop offset="0.514742" stop-color="#E26977" stop-opacity="0"/>
<stop offset="0.940338" stop-color="#F67698"/>
</radialGradient>
</defs>
</svg>

<svg width="32" height="32" fill="none" xmlns="http://www.w3.org/2000/svg"><g filter="url(#a)"><path fill-rule="evenodd" clip-rule="evenodd" d="m13.05 21.647 9.684-3.947 2.34 5.743a2.85 2.85 0 0 1-1.563 3.715l-4.406 1.796a2.85 2.85 0 0 1-3.715-1.564l-2.34-5.743Zm2.476 1.043 1.623 3.983a.95.95 0 0 0 1.239.521l4.406-1.795a.95.95 0 0 0 .521-1.239l-1.623-3.983-6.166 2.512Z" fill="#FBBA59"/></g><g filter="url(#b)"><path d="m14.576 21.934-.094-.231-.233.094.095.232.232-.095Zm7.968-3.23.231-.094-.094-.23-.231.093.094.232Zm-3.486 9.136-.094-.232.094.232Zm-2.49-1.042.232-.095-.232.095Zm7.969-3.23-.232.095.232-.095Zm-1.048 2.476.093.232-.093-.232Zm-8.82-3.878 7.969-3.23-.188-.463-7.968 3.23.188.463Zm7.643-3.367 1.993 4.864.463-.19-1.993-4.863-.462.19Zm1.083 7.014-4.43 1.796.187.463 4.43-1.796-.187-.463Zm-6.595.89-1.993-4.863-.463.19 1.993 4.863.463-.19Zm2.164.905a1.664 1.664 0 0 1-2.164-.905l-.463.19a2.164 2.164 0 0 0 2.815 1.179l-.188-.463Zm5.341-3.945a1.647 1.647 0 0 1-.91 2.15l.188.463a2.147 2.147 0 0 0 1.185-2.803l-.463.19Z" fill="url(#c)"/><path d="m14.576 21.934-.094-.231-.233.094.095.232.232-.095Zm7.968-3.23.231-.094-.094-.23-.231.093.094.232Zm-3.486 9.136-.094-.232.094.232Zm-2.49-1.042.232-.095-.232.095Zm7.969-3.23-.232.095.232-.095Zm-1.048 2.476.093.232-.093-.232Zm-8.82-3.878 7.969-3.23-.188-.463-7.968 3.23.188.463Zm7.643-3.367 1.993 4.864.463-.19-1.993-4.863-.462.19Zm1.083 7.014-4.43 1.796.187.463 4.43-1.796-.187-.463Zm-6.595.89-1.993-4.863-.463.19 1.993 4.863.463-.19Zm2.164.905a1.664 1.664 0 0 1-2.164-.905l-.463.19a2.164 2.164 0 0 0 2.815 1.179l-.188-.463Zm5.341-3.945a1.647 1.647 0 0 1-.91 2.15l.188.463a2.147 2.147 0 0 0 1.185-2.803l-.463.19Z" fill="url(#d)"/></g><path d="M12.75 3.742c.793-1.81 3.16-2.252 4.552-.85l11.689 11.783c1.386 1.398.936 3.751-.868 4.538L9.277 27.438l-4.735-4.953L12.75 3.742Z" fill="url(#e)"/><path d="M12.75 3.742c.793-1.81 3.16-2.252 4.552-.85l11.689 11.783c1.386 1.398.936 3.751-.868 4.538L9.277 27.438l-4.735-4.953L12.75 3.742Z" fill="url(#f)"/><path d="M12.75 3.742c.793-1.81 3.16-2.252 4.552-.85l11.689 11.783c1.386 1.398.936 3.751-.868 4.538L9.277 27.438l-4.735-4.953L12.75 3.742Z" fill="url(#g)"/><path d="M12.75 3.742c.793-1.81 3.16-2.252 4.552-.85l11.689 11.783c1.386 1.398.936 3.751-.868 4.538L9.277 27.438l-4.735-4.953L12.75 3.742Z" fill="url(#h)"/><path d="M12.75 3.742c.793-1.81 3.16-2.252 4.552-.85l11.689 11.783c1.386 1.398.936 3.751-.868 4.538L9.277 27.438l-4.735-4.953L12.75 3.742Z" fill="url(#i)"/><rect x="3.699" y="20.484" width="10.927" height="3.315" rx="1.657" transform="rotate(45 3.699 20.484)" fill="#FAA72C"/><rect x="3.699" y="20.484" width="10.927" height="3.315" rx="1.657" transform="rotate(45 3.699 20.484)" fill="url(#j)"/><rect x="3.699" y="20.484" width="10.927" height="3.315" rx="1.657" transform="rotate(45 3.699 20.484)" fill="url(#k)"/><rect x="3.699" y="20.484" width="10.927" height="3.315" rx="1.657" transform="rotate(45 3.699 20.484)" fill="url(#l)"/><rect x="3.699" y="20.484" width="10.927" height="3.315" rx="1.657" transform="rotate(45 3.699 20.484)" fill="url(#m)"/><defs><radialGradient id="d" cx="0" cy="0" r="1" gradientUnits="userSpaceOnUse" gradientTransform="matrix(-2.14277 1.0916 -1.28303 -2.51853 16.883 25.145)"><stop stop-color="#FFEA7B"/><stop offset="1" stop-color="#FFEA7B" stop-opacity="0"/></radialGradient><radialGradient id="e" cx="0" cy="0" r="1" gradientUnits="userSpaceOnUse" gradientTransform="matrix(14.5 -9.125 3.43262 5.45458 10.12 25.25)"><stop offset=".024" stop-color="#FAB66E"/><stop offset="1" stop-color="#EC9547"/></radialGradient><radialGradient id="g" cx="0" cy="0" r="1" gradientUnits="userSpaceOnUse" gradientTransform="matrix(-1.75 1.56249 -6.34069 -7.10164 23.996 11.375)"><stop stop-color="#FCC071"/><stop offset="1" stop-color="#F9A53E" stop-opacity="0"/></radialGradient><radialGradient id="h" cx="0" cy="0" r="1" gradientUnits="userSpaceOnUse" gradientTransform="matrix(-1.33379 1.18749 -5.26453 -5.91315 17.173 3.594)"><stop stop-color="#EBA659"/><stop offset="1" stop-color="#F29E36" stop-opacity="0"/></radialGradient><radialGradient id="j" cx="0" cy="0" r="1" gradientUnits="userSpaceOnUse" gradientTransform="rotate(-178.141 7.134 11.676) scale(7.49486 2.103)"><stop stop-color="#F79F6D"/><stop offset="1" stop-color="#F79F6D" stop-opacity="0"/></radialGradient><radialGradient id="l" cx="0" cy="0" r="1" gradientUnits="userSpaceOnUse" gradientTransform="rotate(93.759 -5.207 15.157) scale(1.13768 3.75057)"><stop stop-color="#FCCA73"/><stop offset="1" stop-color="#FBB950" stop-opacity="0"/></radialGradient><radialGradient id="m" cx="0" cy="0" r="1" gradientUnits="userSpaceOnUse" gradientTransform="rotate(75.228 -7.322 17.19) scale(4.59332 16.1018)"><stop offset=".515" stop-color="#E26977" stop-opacity="0"/><stop offset=".94" stop-color="#F67698"/></radialGradient><linearGradient id="c" x1="25.375" y1="23.689" x2="21.596" y2="25.734" gradientUnits="userSpaceOnUse"><stop stop-color="#FFEA7B"/><stop offset="1" stop-color="#FFEA7B" stop-opacity="0"/></linearGradient><linearGradient id="f" x1="5.746" y1="14.25" x2="13.558" y2="18.375" gradientUnits="userSpaceOnUse"><stop offset=".211" stop-color="#A47F53"/><stop offset="1" stop-color="#C59635" stop-opacity="0"/></linearGradient><linearGradient id="i" x1="20.746" y1="22.875" x2="19.839" y2="20.906" gradientUnits="userSpaceOnUse"><stop offset=".094" stop-color="#EC7E85"/><stop offset="1" stop-color="#F8A35F" stop-opacity="0"/></linearGradient><linearGradient id="k" x1="6.152" y1="24.152" x2="9.267" y2="20.418" gradientUnits="userSpaceOnUse"><stop stop-color="#A77850"/><stop offset="1" stop-color="#DB8E2F" stop-opacity="0"/></linearGradient><filter id="a" x="13.049" y="17.2" width="12.737" height="11.965" filterUnits="userSpaceOnUse" color-interpolation-filters="sRGB"><feFlood flood-opacity="0" result="BackgroundImageFix"/><feBlend in="SourceGraphic" in2="BackgroundImageFix" result="shape"/><feColorMatrix in="SourceAlpha" values="0 0 0 0 0 0 0 0 0 0 0 0 0 0 0 0 0 0 127 0" result="hardAlpha"/><feOffset dx=".5" dy="-.5"/><feGaussianBlur stdDeviation=".375"/><feComposite in2="hardAlpha" operator="arithmetic" k2="-1" k3="1"/><feColorMatrix values="0 0 0 0 0.972549 0 0 0 0 0.6 0 0 0 0 0.231373 0 0 0 1 0"/><feBlend in2="shape" result="effect1_innerShadow_18_17893"/><feColorMatrix in="SourceAlpha" values="0 0 0 0 0 0 0 0 0 0 0 0 0 0 0 0 0 0 127 0" result="hardAlpha"/><feOffset dx=".3"/><feGaussianBlur stdDeviation=".25"/><feComposite in2="hardAlpha" operator="arithmetic" k2="-1" k3="1"/><feColorMatrix values="0 0 0 0 0.831373 0 0 0 0 0.54902 0 0 0 0 0.254902 0 0 0 1 0"/><feBlend in2="effect1_innerShadow_18_17893" result="effect2_innerShadow_18_17893"/></filter><filter id="b" x="13.749" y="17.879" width="11.679" height="10.852" filterUnits="userSpaceOnUse" color-interpolation-filters="sRGB"><feFlood flood-opacity="0" result="BackgroundImageFix"/><feBlend in="SourceGraphic" in2="BackgroundImageFix" result="shape"/><feGaussianBlur stdDeviation=".25" result="effect1_foregroundBlur_18_17893"/></filter></defs></svg>
